sanatorium/img/svg/icon-search.svg

<svg width="24" height="25" viewBox="0 0 24 25" fill="none" xmlns="http://www.w3.org/2000/svg">
<g clip-path="url(#clip0)">
<path d="M10.5691 0.958984C4.74145 0.958984 0 5.69924 0 11.5254C0 17.3519 4.74145 22.0919 10.5691 22.0919C16.3971 22.0919 21.1382 17.3519 21.1382 11.5254C21.1382 5.69924 16.3971 0.958984 10.5691 0.958984ZM10.5691 20.1412C5.81723 20.1412 1.95122 16.2761 1.95122 11.5255C1.95122 6.7748 5.81723 2.90971 10.5691 2.90971C15.321 2.90971 19.187 6.77476 19.187 11.5254C19.187 16.2761 15.321 20.1412 10.5691 20.1412Z" fill="#D9576B"/>
<path d="M23.7159 23.288L18.1224 17.6959C17.7413 17.3149 17.124 17.3149 16.7429 17.6959C16.3617 18.0767 16.3617 18.6944 16.7429 19.0751L22.3364 24.6672C22.5269 24.8577 22.7764 24.953 23.0262 24.953C23.2756 24.953 23.5253 24.8577 23.7159 24.6672C24.0971 24.2865 24.0971 23.6687 23.7159 23.288Z" fill="#D9576B"/>
</g>
<defs>
<clipPath id="clip0">
<rect width="24" height="23.994" fill="white" transform="translate(0 0.958984)"/>
</clipPath>
</defs>
</svg>

<svg width="24" height="25" fill="none" xmlns="http://www.w3.org/2000/svg"><g clip-path="url(#clip0)" fill="#D9576B"><path d="M10.57.959C4.74.959 0 5.699 0 11.525c0 5.827 4.741 10.567 10.57 10.567 5.827 0 10.568-4.74 10.568-10.567C21.138 5.7 16.398.96 10.57.96zm0 19.182c-4.753 0-8.619-3.865-8.619-8.615 0-4.751 3.866-8.616 8.618-8.616 4.752 0 8.618 3.865 8.618 8.615 0 4.751-3.866 8.616-8.618 8.616z"/><path d="M23.716 23.288l-5.594-5.592a.975.975 0 10-1.38 1.38l5.594 5.591a.972.972 0 001.38 0 .975.975 0 000-1.379z"/></g><defs><clipPath id="clip0"><path fill="#fff" transform="translate(0 .959)" d="M0 0h24v23.994H0z"/></clipPath></defs></svg>
